X:255
T:Rummer,The. (p)1686.PLFD.255
T:Swaggering Boney,aka. (p)1686.PLFD.255
M:6/4
L:1/4
Q:3/4=90
S:Playford, Dancing Master,7th Ed.,1686
O:England
N:Reminiscent of "How Do You Do?" Sherborne, Morris Dance Tune. CGP.
H:1686.
Z:Chris Partington.
K:F
c|A>GFA/B/cA|B/c/dBc2c|f>ede/f/ge|fFFF2:|
|:f|f>gagab|a>gfe>fg|f>efdgf|eccc2c|
defc2f|B2fA2f|G>gfe>de|fFFF2:|
